images/ico-bicro-marche-descript-act.svg

<svg xmlns="http://www.w3.org/2000/svg" width="25" height="26" fill="none" viewBox="0 0 25 26"><circle cx="17.8125" cy="8.125" r="6.25" fill="#fdd"/><path fill="#000" d="M18.5003 8.5C18.9603 8.5 19.3337 8.87333 19.3337 9.33333V21C19.3337 21.46 18.9603 21.8333 18.5003 21.8333H6.37949L2.66699 24.75V9.33333C2.66699 8.87333 3.04033 8.5 3.50033 8.5H18.5003ZM17.667 10.1667H4.33366V21.3208L5.80283 20.1667H17.667V10.1667ZM9.76283 12.1767L10.1353 12.75C8.74533 13.5025 8.76949 14.71 8.76949 14.97C8.89866 14.9533 9.03449 14.95 9.16949 14.9625C9.92116 15.0325 10.5137 15.65 10.5137 16.4167C10.5137 17.2217 9.86033 17.875 9.05533 17.875C8.60783 17.875 8.18033 17.6708 7.91033 17.3833C7.48116 16.9283 7.25033 16.4167 7.25033 15.5875C7.25033 14.1292 8.27366 12.8225 9.76283 12.1767ZM13.9295 12.1767L14.302 12.75C12.912 13.5025 12.9362 14.71 12.9362 14.97C13.0653 14.9533 13.2012 14.95 13.3362 14.9625C14.0878 15.0325 14.6803 15.65 14.6803 16.4167C14.6803 17.2217 14.027 17.875 13.222 17.875C12.7745 17.875 12.347 17.6708 12.077 17.3833C11.6478 16.9283 11.417 16.4167 11.417 15.5875C11.417 14.1292 12.4403 12.8225 13.9295 12.1767Z"/></svg>

<svg xmlns="http://www.w3.org/2000/svg" width="25" height="26" fill="none" viewBox="0 0 25 26"><circle cx="17.8125" cy="8.125" r="6.25" fill="#FDD"/><path fill="#000" d="M18.5 8.5c.46 0 .834.373.834.833V21c0 .46-.374.833-.834.833H6.38L2.666 24.75V9.333c0-.46.373-.833.833-.833zm-.833 1.667H4.334V21.32l1.469-1.154h11.864zm-7.904 2.01.372.573c-1.39.752-1.366 1.96-1.366 2.22q.196-.026.4-.008c.752.07 1.345.688 1.345 1.455a1.46 1.46 0 0 1-1.459 1.458 1.6 1.6 0 0 1-1.145-.492c-.429-.455-.66-.966-.66-1.795 0-1.459 1.024-2.765 2.513-3.411m4.167 0 .372.573c-1.39.752-1.366 1.96-1.366 2.22q.196-.026.4-.008c.752.07 1.344.688 1.344 1.455 0 .805-.653 1.458-1.458 1.458a1.6 1.6 0 0 1-1.145-.492c-.43-.455-.66-.966-.66-1.795 0-1.459 1.023-2.765 2.513-3.411"/></svg>
